X: 842
T: Girdi Gönül
C: Dede Efendi
O: Turkey
F: http://compmusic.upf.edu/node/140
N: karcigar--kocekce--aksak--girdi_gonul--dede_efendi
N: makam= karcigar
N: form= kocekce
N: usul= aksak = 9/8
M: 9/8
L: 1/16
K: C _2/4B _3/4e ^3/4f 
Q: 1/4=114
%%MIDI tuningsystem comma53
z4 dc_1/4Bc d4 c2d4 | d4g^f _7/8eddc c_1/4Bd4cB  | \
w:   |   | 
_1/4BAG2 dcBc d4 c2d4 | 
w:   | 
d4g^f _7/8eddc c_1/4Bc4d_1/4e  | dc2_1/4B =f4 f4 f2f3=e | \
w:   |   | 
=e2 dce2 dcc3_1/4BAB c2BA  | 
w:   | 
A2c'4_ba agg^f g4 fa | g2 z2g4g4g^f g4  | \
w:   |   | 
^fga_1/4b c'2_ba gf_7/8e2 f4 ed | 
w:   | 
c2 z2g4g4g^f g4  | ^fga_1/4b c'2_ba gf_7/8e2 f4 ed | \
w:   |   | 
d2 z2dc _1/4Bcd4d_7/8e d2c2  | 
w:   | 
d2z2 g^f_7/8ed dc_1/4Bc d4 cB | A2 z2dc _1/4Bcd4d_7/8e d2c2  | 
w:   |   | 
d2z2 g^f_7/8ed dcc_1/4B c4 d_1/4e | \
w:   | 
dc2_1/4BA3Bc4c2 c4  | 
w:   | 
c4 c3_1/4B B3A d4 cB | _1/4BA G2A3Bc2 d2=e2 e3d  | \
w:   |   | 
d3c c3_1/4B BABA A4 z2 | 
w:   | 
^fg a_1/4bc'2 baag gfgf _7/8edc2  | \
w:   | 
c3_1/4B ^f_7/8edc cBBA A4 z2 | 
w:   | 
^f2 g6g3fgf _7/8edc2  | g3/2=f/_1/4eg fgfe ag2^f _7/8e3/2d/c2 z2 | 
w:   |   | 
=e2 =f2f2 fe_1/4e3d_7/8e4dc  | c6c_1/4B B3A ABc2 BA | \
w:   |   | 
A3c'_1/4b2 a2g2 ^f2=e4d2  | 
w:   | 
=e2de ^f2ef g2fg a4 z2 | a3c'_1/4b2 a2g2 =f2=e2 d2c2  | \
w:   |   | 
_1/4Bcd=e =fedc cBBA A4 z2 | 
w:   | 
a3c'_1/4b2 a2g2 ^f2=e4d2  | =e2de ^f2ef g2fg a4 z2 | \
w:   |   | 
a3c'_1/4b2 a2g2 =f2=e2 d2c2  | 
w:   | 
_1/4Bcd=e =fedc cBBA A4 z2 | |


